X:76
T:Far From Home
M:C|
R:reel
K:G
"G"GEDE G2GA| B2BA Bcd2|GEDE G2GB| "D"AGAB "C"AGE2|
"G"GEDE G2GA| B2BA Bcd2| "C"edef gedc| "D7"BGAF "G"G4 :|
|:"Em"g2>e2 "D"f2>d2| "C"edef "G"edB2| gedB G2GB| "D"AGAB "C"AG E2|
"G"GEDE G2 GA| B2BA Bcd2| "C"edef gedc| "D7"BGAF "G"G4 :|
